X: 231
T: The Tribe You Help
C: Teton Sioux band 1911-1914
N: Derived from sioux226.krn
O: South Dakota, U.S.A.
N: Teton Sioux Music by Frances Densmore, 1918
Z: transcribed to **kern format by Craig Sapp
L: 1/8
M: 2/4
Q: 1/4=58
K: Eb clef=treble
%%linebreak <none>
(3G G G (3G G G [I:setbarnb 1]||  
[M:3/4](3G G G (3E C C (3C C C ||  
[M:2/4](3:2:1E E (3:2:1E/E2 | 
(3G G G (3G G G | 
(3E C C (3E C C | 
(3B, A, A,A,2 | 
[K:clef=bass](3:2:4C C C C C (3:2:1B,/ | 
B,2G,/ G,/ G,/ G,/ ||  
[M:3/4](3B, B, B, G,/ B,/ G,/ G,/G,2 ||  
[M:2/4](3B, G,- G, (3G,- G, G, | 
(3B, G, G,G,2 | 
G,4 ||  
[M:3/4]E< E E< EE2 | 
G> G E< CC2 | 
E< C C< CC2 ||  
[M:2/4]D< C E/ C3/ | 
B, G,/ G,/B,2 ||  
[M:3/4]B,< C B,< G,G,2 ||  
[M:2/4]B,< G, G,3/ G,/ | 
B,< G,G,2 | 
G,4 |]  



